src/assets/featuredLogos/victory.svg

<svg xmlns="http://www.w3.org/2000/svg" width="600" height="600" fill="none" role="img" aria-labelledby="victory-title"><title id="victory-title">Victory</title><style><![CDATA[.B{fill-rule:evenodd}.C{fill:#ff684f}]]></style><g clip-path="url(#A)"><path d="M342.277 9.063l195.971 87.994C575.801 113.919 600 151.52 600 193.012v213.976c0 41.491-24.199 79.093-61.752 95.955l-195.971 87.994C328.969 596.912 314.565 600 300 600s-28.969-3.088-42.277-9.063L61.752 502.943C24.199 486.081 0 448.48 0 406.989V193.011c0-41.491 24.199-79.093 61.752-95.954L257.723 9.063C271.031 3.088 285.435 0 300 0s28.969 3.088 42.277 9.063z" fill="#202020" class="B"/><g stroke="#ff684f" stroke-width="24"><path class="inner-ring" opacity=".5" d="M332.324 42.926C322.145 38.359 311.134 36 300 36s-22.145 2.359-32.324 6.926L76.8 128.553C51.993 139.681 36 164.561 36 192.021v215.957c0 27.461 15.993 52.34 40.8 63.468l190.876 85.629a78.96 78.96 0 0 0 64.647 0l190.876-85.629C548.006 460.318 564 435.439 564 407.978V192.021c0-27.46-15.994-52.34-40.801-63.468L332.325 42.926h-.001z"/><path class="outer-ring" d="M337.402 20.021C325.629 14.733 312.888 12 300.003 12s-25.626 2.733-37.399 8.021l-195.972 88.03c-33.221 14.921-54.629 48.198-54.629 84.917v214.064c0 36.719 21.407 69.996 54.628 84.918l195.974 88.029c11.773 5.288 24.514 8.021 37.399 8.021s25.626-2.733 37.399-8.021l195.972-88.029c33.222-14.922 54.629-48.199 54.629-84.918V192.969c0-36.72-21.407-69.997-54.628-84.918l-195.973-88.03z"/></g><g class="C"><path d="M188.66 410.294h8.193l7.968 27.866 8.044-27.866h7.968L208.308 447h-7.247l-12.401-36.706zm36.133 0h7.62V447h-7.62v-36.706zm40.69 33.967c-2.739 2.507-6.242 3.76-10.508 3.76-5.28 0-9.43-1.693-12.452-5.08-3.021-3.403-4.532-8.068-4.532-13.995 0-6.408 1.718-11.347 5.155-14.817 2.988-3.022 6.79-4.532 11.405-4.532 6.176 0 10.692 2.025 13.547 6.076 1.577 2.274 2.424 4.557 2.54 6.848h-7.67c-.498-1.76-1.137-3.088-1.917-3.984-1.395-1.594-3.462-2.391-6.201-2.391-2.789 0-4.989 1.129-6.599 3.387-1.61 2.241-2.416 5.42-2.416 9.537s.847 7.205 2.54 9.264c1.71 2.042 3.877 3.063 6.5 3.063 2.689 0 4.74-.88 6.151-2.64.78-.946 1.428-2.365 1.942-4.258h7.595c-.664 4.001-2.357 7.255-5.08 9.762zm37.628-33.967v6.499h-10.982V447h-7.72v-30.207h-11.032v-6.499h29.734zm19.847 37.727c-5.246 0-9.255-1.428-12.028-4.283-3.719-3.503-5.578-8.55-5.578-15.141 0-6.723 1.859-11.77 5.578-15.14 2.773-2.856 6.782-4.284 12.028-4.284s9.255 1.428 12.028 4.284c3.702 3.37 5.553 8.417 5.553 15.14 0 6.591-1.851 11.638-5.553 15.141-2.773 2.855-6.782 4.283-12.028 4.283zm7.247-9.861c1.776-2.242 2.664-5.429 2.664-9.563 0-4.117-.896-7.296-2.689-9.537-1.777-2.258-4.184-3.387-7.222-3.387s-5.462 1.12-7.271 3.362-2.715 5.428-2.715 9.562.905 7.321 2.715 9.563 4.233 3.361 7.271 3.361 5.454-1.12 7.247-3.361zm31.8-5.554h-7.919V447h-7.496v-36.706h18.005c2.573.05 4.549.365 5.926.946 1.395.581 2.574 1.436 3.537 2.565a11.39 11.39 0 0 1 1.892 3.088c.465 1.129.697 2.416.697 3.86 0 1.743-.439 3.461-1.319 5.155-.88 1.676-2.333 2.863-4.358 3.561 1.693.68 2.888 1.652 3.586 2.913.714 1.245 1.07 3.155 1.07 5.728v2.465c0 1.677.067 2.814.2 3.412.199.946.664 1.643 1.394 2.092V447h-8.442c-.232-.813-.398-1.469-.498-1.967a18.05 18.05 0 0 1-.323-3.163l-.05-3.412c-.033-2.34-.465-3.901-1.295-4.681-.814-.78-2.349-1.171-4.607-1.171zm4.657-6.673c1.527-.698 2.291-2.076 2.291-4.134 0-2.225-.739-3.719-2.217-4.483-.83-.431-2.075-.647-3.735-.647h-8.915v9.861h8.691c1.726 0 3.021-.199 3.885-.597zm44.351-15.639l-12.277 22.91V447h-7.67v-13.796l-12.7-22.91h9.039l7.62 15.987 7.297-15.987h8.691z"/><g class="B"><path d="M224.72 153.323h21.98l58.319 214.79h-21.982l-58.317-214.79z"/></g></g><path d="M362.887 236.456h-22.13L305.02 368.113h21.973l35.894-131.657z" fill="#e04126" class="B"/><path d="M402.364 171.952H380.46l-26.201 96.158h21.814l26.291-96.158z" class="B C"/><path d="M202.738 153.323h21.982l58.317 214.79a28.65 28.65 0 0 1-17.475-5.955c-5.021-3.863-8.643-9.282-10.311-15.424l-52.513-193.411z" fill="#e04126" class="B"/><path d="M246.701 153.323a28.65 28.65 0 0 1 17.475 5.956c5.021 3.862 8.643 9.282 10.311 15.424L327 368.113h-21.981l-58.318-214.79z" fill="#ff9877" class="B"/><g class="C"><path d="M224.72 153.323l5.068 18.629h-24.595c-5.5 0-10.848-1.824-15.22-5.19s-7.524-8.088-8.973-13.439h43.72z" class="B"/><path d="M410.724 206.13c8.993-6.342 11.19-18.832 4.911-27.907L396.799 151l-30.789 14.612c-9.982 4.737-14.266 16.738-9.568 26.804l.01.021 33.724-16.005 20.548 29.697v.001z"/></g></g><defs><clipPath id="A"><path fill="#fff" d="M0 0h600v600H0z"/></clipPath></defs></svg>

<svg viewBox="0 0 600 600" fill="none" xmlns="http://www.w3.org/2000/svg" role="img" aria-labelledby="victory-title"><title id="victory-title">Victory</title><g clip-path="url(#Open Source / Victory__a)"><path fill-rule="evenodd" clip-rule="evenodd" d="M342.277 9.06339L538.248 97.0571C575.801 113.919 600 151.52 600 193.012V406.988C600 448.479 575.801 486.081 538.248 502.943L342.277 590.937C328.969 596.912 314.565 600 300 600C285.435 600 271.031 596.912 257.723 590.937L61.752 502.943C24.199 486.081 0 448.48 0 406.989V193.011C0 151.52 24.199 113.918 61.752 97.0571L257.723 9.06339C271.031 3.08776 285.435 0 300 0C314.565 0 328.969 3.08776 342.277 9.06339V9.06339Z" fill="#202020"/><path class="inner-ring" opacity=".5" clip-rule="evenodd" d="M332.324 42.9255C322.145 38.3591 311.134 36 300 36C288.866 36 277.855 38.3591 267.676 42.9255L76.7998 128.553C51.9932 139.681 36 164.561 36 192.021V407.978C36 435.439 51.9932 460.318 76.7998 471.446L267.676 557.075C277.855 561.641 288.865 564 299.999 564C311.134 564 322.144 561.641 332.323 557.075L523.199 471.446C548.006 460.318 564 435.439 564 407.978V192.021C564 164.561 548.006 139.681 523.199 128.553L332.325 42.9255H332.324Z" stroke="#FF684F" stroke-width="24"/><path class="outer-ring" clip-rule="evenodd" d="M337.402 20.0209C325.629 14.7326 312.888 12 300.003 12C287.118 12 274.377 14.7326 262.604 20.0209L66.6315 108.051C33.4101 122.972 12.0029 156.249 12.0029 192.968V407.032C12.0029 443.751 33.4101 477.028 66.6305 491.95L262.604 579.979C274.377 585.267 287.118 588 300.003 588C312.888 588 325.629 585.267 337.402 579.979L533.374 491.95C566.596 477.028 588.003 443.751 588.003 407.032V192.969C588.003 156.249 566.596 122.972 533.375 108.051L337.402 20.0209Z" stroke="#FF684F" stroke-width="24"/><path d="M188.66 410.294H196.853L204.821 438.16L212.865 410.294H220.833L208.308 447H201.061L188.66 410.294ZM224.793 410.294H232.413V447H224.793V410.294ZM265.483 444.261C262.744 446.768 259.241 448.021 254.975 448.021C249.695 448.021 245.545 446.328 242.523 442.941C239.502 439.538 237.991 434.873 237.991 428.946C237.991 422.538 239.709 417.599 243.146 414.129C246.134 411.107 249.936 409.597 254.551 409.597C260.727 409.597 265.243 411.622 268.098 415.673C269.675 417.947 270.522 420.23 270.638 422.521H262.968C262.47 420.761 261.831 419.433 261.051 418.537C259.656 416.943 257.589 416.146 254.85 416.146C252.061 416.146 249.861 417.275 248.251 419.533C246.641 421.774 245.835 424.953 245.835 429.07C245.835 433.188 246.682 436.275 248.375 438.334C250.085 440.376 252.252 441.397 254.875 441.397C257.564 441.397 259.615 440.517 261.026 438.757C261.806 437.811 262.454 436.392 262.968 434.499H270.563C269.899 438.5 268.206 441.754 265.483 444.261ZM303.111 410.294V416.793H292.129V447H284.409V416.793H273.377V410.294H303.111ZM322.958 448.021C317.712 448.021 313.703 446.593 310.93 443.738C307.211 440.235 305.352 435.188 305.352 428.597C305.352 421.874 307.211 416.827 310.93 413.457C313.703 410.601 317.712 409.173 322.958 409.173C328.204 409.173 332.213 410.601 334.986 413.457C338.688 416.827 340.539 421.874 340.539 428.597C340.539 435.188 338.688 440.235 334.986 443.738C332.213 446.593 328.204 448.021 322.958 448.021ZM330.205 438.16C331.981 435.918 332.869 432.731 332.869 428.597C332.869 424.48 331.973 421.301 330.18 419.06C328.403 416.802 325.996 415.673 322.958 415.673C319.92 415.673 317.496 416.793 315.687 419.035C313.877 421.276 312.972 424.463 312.972 428.597C312.972 432.731 313.877 435.918 315.687 438.16C317.496 440.401 319.92 441.521 322.958 441.521C325.996 441.521 328.412 440.401 330.205 438.16ZM362.005 432.606H354.086V447H346.59V410.294H364.595C367.168 410.344 369.144 410.659 370.521 411.24C371.916 411.821 373.095 412.676 374.058 413.805C374.854 414.735 375.485 415.764 375.95 416.893C376.415 418.022 376.647 419.309 376.647 420.753C376.647 422.496 376.208 424.214 375.328 425.908C374.448 427.584 372.995 428.771 370.97 429.469C372.663 430.149 373.858 431.121 374.556 432.382C375.27 433.627 375.626 435.537 375.626 438.11V440.575C375.626 442.252 375.693 443.389 375.826 443.987C376.025 444.933 376.49 445.63 377.22 446.079V447H368.778C368.546 446.187 368.38 445.531 368.28 445.033C368.081 444.003 367.973 442.949 367.957 441.87L367.907 438.458C367.874 436.118 367.442 434.557 366.612 433.777C365.798 432.997 364.263 432.606 362.005 432.606ZM366.662 425.933C368.189 425.235 368.953 423.857 368.953 421.799C368.953 419.574 368.214 418.08 366.736 417.316C365.906 416.885 364.661 416.669 363.001 416.669H354.086V426.53H362.777C364.503 426.53 365.798 426.331 366.662 425.933ZM411.013 410.294L398.736 433.204V447H391.066V433.204L378.366 410.294H387.405L395.025 426.281L402.322 410.294H411.013Z" fill="#FF684F"/><path fill-rule="evenodd" clip-rule="evenodd" d="M224.72 153.323H246.7L305.019 368.113H283.037L224.72 153.323Z" fill="#FF684F"/><path fill-rule="evenodd" clip-rule="evenodd" d="M362.887 236.456H340.757L305.02 368.113H326.993L362.887 236.456Z" fill="#E04126"/><path fill-rule="evenodd" clip-rule="evenodd" d="M402.364 171.952H380.46L354.259 268.11H376.073L402.364 171.952Z" fill="#FF684F"/><path fill-rule="evenodd" clip-rule="evenodd" d="M202.738 153.323H224.72L283.037 368.113C276.722 368.113 270.582 366.021 265.562 362.158C260.541 358.295 256.919 352.876 255.251 346.734L202.738 153.323Z" fill="#E04126"/><path fill-rule="evenodd" clip-rule="evenodd" d="M246.701 153.323C253.016 153.323 259.156 155.416 264.176 159.279C269.197 163.141 272.819 168.561 274.487 174.703L327 368.113H305.019L246.701 153.323V153.323Z" fill="#FF9877"/><path fill-rule="evenodd" clip-rule="evenodd" d="M224.72 153.323L229.788 171.952H205.193C199.693 171.952 194.345 170.128 189.973 166.762C185.602 163.396 182.449 158.674 181 153.323H224.72Z" fill="#FF684F"/><path d="M410.724 206.13C419.717 199.788 421.914 187.298 415.635 178.223L396.799 151L366.01 165.612C356.028 170.349 351.744 182.35 356.442 192.416L356.452 192.437L390.176 176.432L410.724 206.129V206.13Z" fill="#FF684F"/></g><defs><clipPath id="Open Source / Victory__a"><path fill="#fff" d="M0 0H600V600H0z"/></clipPath></defs></svg>
